apps/scalable/libreoffice-base.svg

<?xml version="1.0" encoding="UTF-8" standalone="no"?>
<svg
   xmlns:dc="http://purl.org/dc/elements/1.1/"
   xmlns:cc="http://creativecommons.org/ns#"
   xmlns:rdf="http://www.w3.org/1999/02/22-rdf-syntax-ns#"
   xmlns:svg="http://www.w3.org/2000/svg"
   xmlns="http://www.w3.org/2000/svg"
   xmlns:sodipodi="http://sodipodi.sourceforge.net/DTD/sodipodi-0.dtd"
   xmlns:inkscape="http://www.inkscape.org/namespaces/inkscape"
   height="48"
   width="48"
   version="1.1"
   id="svg8"
   sodipodi:docname="libreoffice3-base.svg"
   inkscape:version="1.0.2 (e86c870879, 2021-01-15)">
  <metadata
     id="metadata14">
    <rdf:RDF>
      <cc:Work
         rdf:about="">
        <dc:format>image/svg+xml</dc:format>
        <dc:type
           rdf:resource="http://purl.org/dc/dcmitype/StillImage" />
        <dc:title></dc:title>
      </cc:Work>
    </rdf:RDF>
  </metadata>
  <defs
     id="defs12" />
  <sodipodi:namedview
     pagecolor="#ffffff"
     bordercolor="#666666"
     borderopacity="1"
     objecttolerance="10"
     gridtolerance="10"
     guidetolerance="10"
     inkscape:pageopacity="0"
     inkscape:pageshadow="2"
     inkscape:window-width="1920"
     inkscape:window-height="1031"
     id="namedview10"
     showgrid="false"
     inkscape:zoom="9.4583333"
     inkscape:cx="14.070137"
     inkscape:cy="27.288289"
     inkscape:window-x="0"
     inkscape:window-y="24"
     inkscape:window-maximized="1"
     inkscape:current-layer="svg8"
     inkscape:document-rotation="0" />
  <path
     d="m44.322082 27.405077a19.729762 19.729765 0 0 1 -19.729762 19.729765 19.729762 19.729765 0 0 1 -19.7297621-19.729765 19.729762 19.729765 0 0 1 19.7297621-19.7297632 19.729762 19.729765 0 0 1 19.729762 19.7297632z"
     fill="#89a02c"
     opacity=".99"
     transform="matrix(1.1503549 0 0 1.1503549 -4.486125 -7.525565)"
     id="path2"
     style="fill:#be91c8;fill-opacity:1" />
  <g
     fill="#ffffff"
     id="g10"
     transform="translate(-0.40060873,1.4139637)">
    <path
       d="m 21.500002,27.484557 v 0.275734 c 0,-0.09488 0.0143,-0.182339 0.025,-0.275734 z m 0,0.275734 2e-6,3.294118 v 0.413603 h 0.05 c 0.365978,2.246783 3.775823,3.998162 7.949998,3.998162 4.174172,0 7.584019,-1.751379 7.95,-3.998162 h 0.05 V 31.054409 L 37.5,27.760291 c 0,2.436547 -3.581726,4.411765 -8,4.411765 -4.418273,0 -7.999998,-1.975218 -7.999998,-4.411765 z m 16,0 v -0.275734 h -0.025 c 0.01071,0.09339 0.025,0.18085 0.025,0.275734 z"
       id="path4" />
    <path
       d="m 37.500002,26.877939 c 0,2.436546 -3.581711,4.411765 -7.999985,4.411765 -4.418275,0 -7.999985,-1.975219 -7.999985,-4.411765 0,-2.436546 3.58171,-4.411765 7.999985,-4.411765 4.418274,0 7.999985,1.975219 7.999985,4.411765 z"
       id="path6" />
    <path
       d="m 21.500002,31.778675 v 0.275734 c 0,-0.09488 0.0143,-0.182339 0.025,-0.275734 z m 0,0.275734 2e-6,3.294118 v 0.413603 h 0.05 c 0.365978,2.246783 3.775823,3.998162 7.949998,3.998162 4.174172,0 7.584019,-1.751379 7.95,-3.998162 h 0.05 V 35.348527 L 37.5,32.054409 c 0,2.436547 -3.581726,4.411765 -8,4.411765 -4.418273,0 -7.999998,-1.975218 -7.999998,-4.411765 z m 16,0 v -0.275734 h -0.025 c 0.01071,0.09339 0.025,0.18085 0.025,0.275734 z"
       id="path8" />
  </g>
  <path
     d="m 1.1075423,24 c 0,12.534782 10.1614467,22.696231 22.6962277,22.696231 V 1.3037694 C 11.26899,1.3037694 1.1075433,11.465217 1.1075423,24 Z"
     fill="#89a02c"
     opacity="0.99"
     id="path839"
     sodipodi:nodetypes="sccs"
     style="fill:#af7abd;fill-opacity:1;stroke-width:1.15035" />
  <path
     d="m 30.601333,13.121542 a 7.5,7.5 0 0 1 -7.836122,7.133709 7.5,7.5 0 0 1 -7.148003,-7.823085 7.5,7.5 0 0 1 7.810023,-7.1622737 7.5,7.5 0 0 1 7.17652,7.7969337"
     fill="#ffffff"
     id="path14" />
  <path
     d="m 19.787614,17.71551 h 3.640024 c 1.965337,0 3.764588,-0.788902 3.764588,-2.948004 0,-0.871945 -0.415212,-1.882295 -1.550124,-2.228305 v -0.02768 c 0.747381,-0.429052 1.148753,-1.273316 1.148753,-2.103739 0,-1.7023693 -1.38404,-2.5881543 -3.363217,-2.5881543 h -3.640024 z m 2.42207,-6.062094 V 9.8956867 h 1.204114 c 0.650499,0 0.913466,0.3875313 0.913466,0.8442633 0,0.470573 -0.262967,0.913466 -0.871945,0.913466 z m 0,3.986035 v -2.04838 h 1.467081 c 0.705861,0 1.03803,0.456734 1.03803,1.01035 0,0.553616 -0.34601,1.03803 -1.05187,1.03803 z"
     fill="#b16dc2"
     id="path16"
     style="fill:#b07abd;fill-opacity:1" />
</svg>

<?xml version="1.0" encoding="UTF-8" standalone="no"?>
<svg
   height="48"
   width="48"
   version="1.1"
   id="svg8"
   sodipodi:docname="libreoffice-base.svg"
   inkscape:version="1.1.2 (0a00cf5339, 2022-02-04)"
   xmlns:inkscape="http://www.inkscape.org/namespaces/inkscape"
   xmlns:sodipodi="http://sodipodi.sourceforge.net/DTD/sodipodi-0.dtd"
   xmlns="http://www.w3.org/2000/svg"
   xmlns:svg="http://www.w3.org/2000/svg"
   xmlns:rdf="http://www.w3.org/1999/02/22-rdf-syntax-ns#"
   xmlns:cc="http://creativecommons.org/ns#"
   xmlns:dc="http://purl.org/dc/elements/1.1/">
  <metadata
     id="metadata14">
    <rdf:RDF>
      <cc:Work
         rdf:about="">
        <dc:format>image/svg+xml</dc:format>
        <dc:type
           rdf:resource="http://purl.org/dc/dcmitype/StillImage" />
        <dc:title />
      </cc:Work>
    </rdf:RDF>
  </metadata>
  <defs
     id="defs12" />
  <sodipodi:namedview
     pagecolor="#ffffff"
     bordercolor="#666666"
     borderopacity="1"
     objecttolerance="10"
     gridtolerance="10"
     guidetolerance="10"
     inkscape:pageopacity="0"
     inkscape:pageshadow="2"
     inkscape:window-width="1920"
     inkscape:window-height="1031"
     id="namedview10"
     showgrid="false"
     inkscape:zoom="9.4583333"
     inkscape:cx="-5.7621146"
     inkscape:cy="27.330397"
     inkscape:window-x="0"
     inkscape:window-y="0"
     inkscape:window-maximized="1"
     inkscape:current-layer="svg8"
     inkscape:document-rotation="0"
     inkscape:pagecheckerboard="0" />
  <path
     id="path2"
     style="fill:#b48ead;fill-opacity:1;stroke-width:1.15035"
     d="M 23.804688 1.3046875 A 22.696228 22.696232 0 0 0 1.1074219 24 A 22.696228 22.696232 0 0 0 23.804688 46.695312 A 22.696228 22.696232 0 0 0 46.5 24 A 22.696228 22.696232 0 0 0 23.804688 1.3046875 z " />
  <g
     fill="#ffffff"
     id="g10"
     transform="translate(-0.40060873,1.4139637)">
    <path
       d="m 21.500002,27.484557 v 0.275734 c 0,-0.09488 0.0143,-0.182339 0.025,-0.275734 z m 0,0.275734 2e-6,3.294118 v 0.413603 h 0.05 c 0.365978,2.246783 3.775823,3.998162 7.949998,3.998162 4.174172,0 7.584019,-1.751379 7.95,-3.998162 h 0.05 V 31.054409 L 37.5,27.760291 c 0,2.436547 -3.581726,4.411765 -8,4.411765 -4.418273,0 -7.999998,-1.975218 -7.999998,-4.411765 z m 16,0 v -0.275734 h -0.025 c 0.01071,0.09339 0.025,0.18085 0.025,0.275734 z"
       id="path4" />
    <path
       d="m 37.500002,26.877939 c 0,2.436546 -3.581711,4.411765 -7.999985,4.411765 -4.418275,0 -7.999985,-1.975219 -7.999985,-4.411765 0,-2.436546 3.58171,-4.411765 7.999985,-4.411765 4.418274,0 7.999985,1.975219 7.999985,4.411765 z"
       id="path6" />
    <path
       d="m 21.500002,31.778675 v 0.275734 c 0,-0.09488 0.0143,-0.182339 0.025,-0.275734 z m 0,0.275734 2e-6,3.294118 v 0.413603 h 0.05 c 0.365978,2.246783 3.775823,3.998162 7.949998,3.998162 4.174172,0 7.584019,-1.751379 7.95,-3.998162 h 0.05 V 35.348527 L 37.5,32.054409 c 0,2.436547 -3.581726,4.411765 -8,4.411765 -4.418273,0 -7.999998,-1.975218 -7.999998,-4.411765 z m 16,0 v -0.275734 h -0.025 c 0.01071,0.09339 0.025,0.18085 0.025,0.275734 z"
       id="path8" />
  </g>
  <path
     id="path839"
     style="fill:#92748c;fill-opacity:1;stroke-width:1.15035"
     d="M 23.804688 1.3046875 C 11.269908 1.3046875 1.1074229 11.465217 1.1074219 24 C 1.1074219 36.534782 11.269906 46.695313 23.804688 46.695312 L 23.804688 1.3046875 z " />
  <path
     d="m 30.601333,13.121542 a 7.5,7.5 0 0 1 -7.836122,7.133709 7.5,7.5 0 0 1 -7.148003,-7.823085 7.5,7.5 0 0 1 7.810023,-7.1622737 7.5,7.5 0 0 1 7.17652,7.7969337"
     fill="#ffffff"
     id="path14" />
  <path
     id="path16"
     style="fill:#b48ead;fill-opacity:1"
     d="M 19.787109 7.8203125 L 19.787109 17.714844 L 23.427734 17.714844 C 25.393071 17.714844 27.191406 16.92668 27.191406 14.767578 C 27.191406 13.895633 26.77749 12.885072 25.642578 12.539062 L 25.642578 12.511719 C 26.389959 12.082667 26.791016 11.238626 26.791016 10.408203 C 26.791016 8.7058338 25.406911 7.8203125 23.427734 7.8203125 L 19.787109 7.8203125 z M 22.208984 9.8964844 L 23.414062 9.8964844 C 24.064561 9.8964844 24.328125 10.283502 24.328125 10.740234 C 24.328125 11.210807 24.064056 11.654297 23.455078 11.654297 L 22.208984 11.654297 L 22.208984 9.8964844 z M 22.208984 13.591797 L 23.677734 13.591797 C 24.383595 13.591797 24.714844 14.047946 24.714844 14.601562 C 24.714844 15.155178 24.367969 15.638672 23.662109 15.638672 L 22.208984 15.638672 L 22.208984 13.591797 z " />
</svg>
